**kern	**kern	**dynam
*part1	*part1	*part1
*staff2	*staff1	*
*I"Piano	*	*
*clefF4	*clefG2	*
*k[f#c#]	*k[f#c#]	*
=1	=1	=1
*^	*^	*
2d>	2d	2b	2f#	.
2d>	2cn	2a	2f#	.
=	=	=	=	=
2.d>	2.B	2.dd	2.g	.
!	!	!LO:TX:a:i:t=rall. molto	!	!LO:DY:a
4G	4BB	4d	4d	pp
=	=	=	=	=
!	!	!	!	!LO:DY:a
2A	2AA	2f#	2c#X	>
2G	2AA	4e	2c#	.
.	.	4a	.	.
=	=	=	=	=
2.F#;	2.D	2.a;	2.d	]
*v	*v	*	*	*
*	*v	*v	*
=||	=||	=||
*k[f#]	*k[f#]	*
*M3/4	*M3/4	*
*^	*^	*
!	!	!LO:TX:a:i:t=cresc.	!	!
!	!	!LO:TX:a:i:t=cresc.	!	!
!	!	!LO:TX:a:B:t=Un poco animato	!	!
4d	4D	4d	4d	.
=	=	=	=	=
4A	4D	4g	4cn	.
4A	4D	4f#	4c	.
8F#L	8CnL	8eL	8AL	.
8F#J	8CJ	8dJ	8dJ	.
*v	*v	*	*	*
=	=	=	=
4.BB 4.G	4.g	4.d	.
!	!	!	!LO:DY:a
8BBL	8gL	8dL 8g	<
8.AA	8.cc	8.c 8.f#	.
16AAJk	16ccJk	16BJk 16e	[[
*	*v	*v	*
=	=	=
*-	*-	*-
!!!system-decoration: {(s1,s2)}
!!!RDF**kern: > = above
